src/assets/icons/logo.svg

<svg width="40" height="49" viewBox="0 0 40 49" fill="none" xmlns="http://www.w3.org/2000/svg">
<path d="M9.63812 23.6474V13.9224L20.0009 7.96536C23.4589 9.95105 26.9094 11.9367 30.3637 13.9224V28.9828H11.7795H2.15075C1.79889 28.184 1.43947 27.3965 1.14815 26.5788C-0.047411 23.2216 -0.308466 19.612 0.361198 16.1417C1.08761 12.3588 2.92257 8.75286 5.85849 5.83273C9.76676 1.94424 14.8857 0 20.0009 0C25.1236 0 30.2426 1.94424 34.1433 5.83273C38.0478 9.72498 40 14.823 40 19.9172C40 25.0152 38.0478 30.1169 34.1433 34.0016L20.0009 48.0861L5.85849 34.0054C5.26072 33.4101 4.6932 32.7695 4.17488 32.1026H8.37068L20.0009 43.6889L31.9375 31.8012C35.2291 28.5231 36.8787 24.2164 36.8787 19.9172C36.8787 15.618 35.2291 11.315 31.9375 8.03319C28.6422 4.74757 24.3178 3.10853 20.0009 3.10853C15.684 3.10853 11.3634 4.75134 8.06801 8.02942C5.58609 10.5012 4.04246 13.5381 3.42954 16.7182C2.83933 19.7627 3.10417 22.9315 4.21271 25.8629H27.2386V15.7084C24.821 14.3181 22.4109 12.9315 20.0009 11.5449L12.767 15.7084V23.6549H9.63812V23.6474Z" fill="#306199"/>
</svg>

<svg xmlns="http://www.w3.org/2000/svg" width="40" height="49" fill="none"><path fill="#306199" d="M9.638 23.647v-9.725l10.363-5.957c3.458 1.986 6.908 3.972 10.363 5.957v15.06H2.15c-.352-.798-.712-1.585-1.003-2.403a19.895 19.895 0 0 1-.787-10.437 19.75 19.75 0 0 1 5.497-10.31A19.993 19.993 0 0 1 20.001 0c5.123 0 10.242 1.944 14.142 5.833A19.827 19.827 0 0 1 40 19.917c0 5.098-1.952 10.2-5.857 14.085L20.001 48.086 5.858 34.006a20.14 20.14 0 0 1-1.683-1.903H8.37L20 43.689 31.937 31.8a16.73 16.73 0 0 0 4.942-11.884c0-4.299-1.65-8.602-4.941-11.884A16.856 16.856 0 0 0 20 3.11a16.875 16.875 0 0 0-11.933 4.92 16.678 16.678 0 0 0-4.638 8.69 16.815 16.815 0 0 0 .783 9.144h23.026V15.708L20 11.545l-7.234 4.163v7.947H9.638v-.008Z"/></svg>
